X: 25
T: Pay the Reckoning
M: 6/8
L: 1/8
R: Jig
K: G
G2 e dBG|BAB dBA|G2 e dBG|AGA BGE|
G2 e dBG|BAB deg|age dBG|AGA BGE :|
gbg faf|efe def|gfg efg|a2 a bge|
gbg faf|efe deg|age dBG|AGA BGE :|
